X:1
T:Beauteous (vocal) waltz
T:Beauteous (vocal) waltz
T:W. F. Taylor
C:W. F. Taylor
%%score [ 1 2 3 4 ]
L:1/8
Q:1/4=135
M:3/4
K:C
V:1 treble nm="Soprano" snm="S"
V:2 treble nm="Alto" snm="A"
V:3 treble-8 nm="Tenor" snm="T"
V:4 bass nm="Bass" snm="B"
V:1
"^Tempo di Valse"!mf! E2 z2 E2 | E2 z2 E2 | E2 z2 E2 | E2!<(! z2 G2!<)! |:!f! c3 G G2 | G2 ^F2 G2 | %6
w: 1.La, la,|la, la,|la, la,|la. O|charm- ing it|is, and de-|
 B3 A A2 | A2 ^G2 A2 | G2 G3 G | G2 A2 B2 | d2 c2 A2 | G2 z2!<(! G2!<)! | c3 G G2 | G2 ^F2 G2 | %14
w: light- ful to|dwell, On thy|sweet fas- ci-|na- tion, O|beau- te- ous|waltz, No|words can I|find thy great|
 B3 A A2 | f2 e2 d2 |1 c3 B A2 || G2 c2 e2 | f2 A3 B | c2!<(! z2 G2!<)! :|1 c3 B A2 || G2 c2 e2 | %22
w: charms to ex-|tol, And my|muse for the|want of them|sud- den- ly|halts. O|muse for the|want of them|
 f2 A3 B | (c2 B2) A2 |: G4 f2 | e4 d2 | d4 c2 | B4 A2 | G2 ^F2 G2 | B2 A2 G2 | ^F6 | G3 z G2 | %32
w: sud- den- ly|halts. * For|round and|round to|mu- sic's|swell Of|mel- o- dies|sweet- ly en-|chant-|ing, O|
 G4 f2 | e4 d2 | d4 c2 | B4 A2 | G2 ^F2 G2 | e4 d2 | %38
w: waltz, with|cir- cling|fai- ry|whirl, Our|sen- ses thou|art en-|
 d6"^half resthalf resthalf resthalf resthalf resthalf resthalf resthalf resthalf resthalf resthalf resthalf resthalf resthalf resthalf resthalf resthalf resthalf resthalf resthalf resthalf resthalf resthalf resthalf resthalf resthalf resthalf resthalf resthalf resthalf resthalf resthalf resthalf resthalf resthalf resthalf rest""^half resthalf resthalf resthalf resthalf resthalf resthalf resthalf resthalf resthalf resthalf resthalf resthalf resthalf resthalf resthalf resthalf resthalf resthalf resthalf resthalf resthalf resthalf resthalf resthalf resthalf resthalf resthalf resthalf resthalf resthalf resthalf resthalf resthalf resthalf resthalf rest" | %39
w: tranc-|
 (c2"^1." B2) A2 :| c4"^2." z2 |] %41
w: ing, * For|ing.|
V:2
!mf! C2 z2 C2 | C2 z2 C2 | C2 z2 C2 | C2!<(! z2 G2!<)! |:!f! E3 E E2 | E2 E2 E2 | F3 F F2 | %7
w: 2.La, la,|la, la,|la, la,|la. Each|heart beat- ing|light- ly, each|eye beam- ing|
 F2 F2 F2 | F2 F3 F | F2 F2 F2 | E2 E2 ^D2 | E2 z2!<(! G2!<)! | E3 E E2 | E2 E2 E2 | F3 F F2 | %15
w: bright- ly, And|glid- ing so|fai- ry- like|round and a-|round, O|waltz, love- ly|waltz, I am|con- quer'd by|
 A2 G2 F2 |1 D3 D D2 || E2 E2 G2 | F2 F3 F | E2!<(! z2 G2!<)! :|1 ^D3 D D2 || E2 E2 G2 | F2 F3 F | %23
w: thee, For the|queen of all|dan- ces thou'lt|ev- er be|found. Each|queen of the|dance thou wilt|ev- er be|
 E4 z2 |: z2!p! F2 F2 | z2 F2 F2 | z2 E2 E2 | z2 E2 E2 | z2 F2 F2 | z2 F2 F2 | z2 ^D2 D2 | %31
w: found.|La, la,|la, la,|la, la,|la, la,|la, la,|la, la,|la, la,|
 z2 E2 E2 | z2 F2 F2 | z2 F2 F2 | z2 E2 E2 | z2 ^D2 D2 | z2 E2 E2 | z2 F2 F2 | %38
w: la, la,|la, la,|la, la,|la, la,|la, la,|la, la,|la, la,|
 F6"^half resthalf resthalf resthalf resthalf resthalf resthalf resthalf resthalf resthalf resthalf resthalf resthalf resthalf resthalf resthalf resthalf resthalf resthalf resthalf resthalf resthalf resthalf resthalf resthalf resthalf resthalf resthalf resthalf resthalf resthalf resthalf resthalf resthalf resthalf resthalf rest" | %39
w: la,|
 E4"^1." z2 :| E4"^2." z2 |] %41
w: la,|la.|
V:3
!mf! G2 z2 G2 | G2 z2 G2 | G2 z2 G2 | G2!<(! z2 G2!<)! |:!f! c3 c c2 | c2 c2 c2 | c3 c c2 | %7
w: 1.La, la,|la, la,|la, la,|la. O|charm- ing it|is, and de-|light- ful to|
 c2 c2 c2 | B2 B3 B | B2 c2 d2 | c2 G2 ^F2 | G2!<(! z2 G2!<)! | c3 c c2 | c2 c2 c2 | c3 c c2 | %15
w: dwell, On thy|sweet fas- ci-|na- tion, O|beau- te- ous|waltz, No|words can I|find thy great|charms to ex-|
 d2 ^c2 d2 |1 A3 B c2 || c2 c2 c2 | A2 B3 d | c2!<(! z2 G2!<)! :|1 A3 B c2 || c2 c2 c2 | A2 B3 d | %23
w: tol, And my|muse for the|want of them|sud- den- ly|halts. O|muse for the|want of them|sud- den- ly|
 c4 z2 |: z2!p! B2 B2 | z2 B2 B2 | z2 c2 c2 | z2 c2 c2 | z2 B2 B2 | z2 B2 B2 | z2 A2 A2 | %31
w: halts.|La, la,|la, la,|la, la,|la, la,|la, la,|la, la,|la, la,|
 z2 G2 c2 | z2 B2 B2 | z2 B2 B2 | z2 c2 c2 | z2 c2 c2 | z2 c2 c2 | z2 B2 B2 | %38
w: la, la,|la, la,|la, la,|la, la,|la, la,|la, la,|la, la,|
 G2 A2 B2"^half resthalf resthalf resthalf resthalf resthalf resthalf resthalf resthalf resthalf resthalf resthalf resthalf resthalf resthalf resthalf resthalf resthalf resthalf resthalf resthalf resthalf resthalf resthalf resthalf resthalf resthalf resthalf resthalf resthalf resthalf resthalf resthalf resthalf resthalf resthalf rest" | %39
w: la, la, la,|
 c4"^1." z2 :| c4"^2." z2 |] %41
w: la,|la.|
V:4
!mf! C,2 z2 C,2 | C,2 z2 C,2 | C,2 z2 C,2 | C,2!<(! z2 G,2!<)! |:!f! C3 C, C,2 | C,2 C,2 C,2 | %6
w: 2.La, la,|la, la,|la, la,|la. Each|heart beat- ing|light- ly, each|
 F,3 F, F,2 | D,2 D,2 D,2 | G,2 G,3 G, | G,2 G,2 G,2 | C,2 C,2 C,2 | C,2!<(! z2 G,2!<)! | %12
w: eye beam- ing|bright- ly, And|glid- ing so|fai- ry- like|round and a-|round, O|
 C3 C, C,2 | C,2 C,2 C,2 | F,3 F, F,2 | D,2 E,2 F,2 |1 ^F,3 F, F,2 || %17
w: waltz, love- ly|waltz, I am|con- quer'd by|thee, For the|queen of all|
"^Edition Copyright © 2002 as public domain. May be freely used." G,2 G,2 G,2 | G,2 G,3 G, | %19
w: dan- ces thou'lt|ev- er be|
 C,2!<(! z2 G,2!<)! :|1 ^F,3 F, F,2 || G,2 G,2 G,2 | G,2 G,3 G, | C,4 z2 |:!p! D,6 | G,6 | C,6 | %27
w: found. Each|queen of the|dance thou wilt|ev- er be|found.|La,|la,|la,|
 G,,6 | D,6 | G,6 | C,6 | G,,6 | D,6 | G,6 | C,6 | ^F,6 | G,6 | G,,6 | C,6 | C,4"^1." z2 :| %40
w: la,|la,|la,|la,|la,|la,|la,|la,|la,|la,|la,|la,|la,|
 C,4"^2." z2 |] %41
w: la.|

